X: 348
T: Spickett & Fossett
%R: reel
Z: 2014 John Chambers <jc:trillian.mit.edu>
B: Preston "Twenty four Country Dances for the Year 1798" p.154 #2
F: http://www.vwml.org/browse/browse-collections-dance-tune-books/browse-prestons1798# 2014-8-10
M: C|
L: 1/8
K: C
|:\
CEEG cded | cAGE dD2E |\
CEEG c>ded | cAGE C2C2 ::\
gage gece |
gage fdde |\
gage dBcA | GEFD C2C2 :|\
e/g/a d/^f/g c/e/f B/d/e | Aage c2c2 |]
% - - - - - - - - - - - - - - - - - - - - - - - - -
%%begintext align
%% Right hands across .| left hands
%% back again :| lead down the
%% middle foot it :|. Allemande :|:
%%endtext
% - - - - - - - - - - - - - - - - - - - - - - - - -

%%sep 1 1 500
%%sep 1 1 500
